img/logo-twitter.svg

<svg xmlns="http://www.w3.org/2000/svg" width="16" height="13"><path fill-rule="evenodd" fill="#EFEBE4" d="M16 1.495l-1.5 1.497v.249c0 .274-.044.535-.108.788-.035 2.059-.693 4.789-3.392 6.944-5.311 4.237-11 .498-11 .498 4.5 0 4.5-1.497 4.5-1.497-1 0-3-1.994-3-1.994.5.498 1.5 0 1.5 0C.5 6.483.5 4.987.5 4.987c.5.498 1.5 0 1.5 0C-.5 2.992 1 .498 1 .498c.5 2.494 7 3.491 7 3.491l.083-.041C8.032 3.72 8 3.235 8 2.992 8 1.201 9.455-.001 11.25-.001a3.23 3.23 0 0 1 2.458 1.143L14 .996l1.5-.997-1 1.995 1.5-.499z"/></svg>

<svg 
 xmlns="http://www.w3.org/2000/svg"
 xmlns:xlink="http://www.w3.org/1999/xlink"
 width="16px" height="13px">
<path fill-rule="evenodd"  fill="rgb(239, 235, 228)"
 d="M16.000,1.495 L14.500,2.992 C14.500,2.992 14.500,2.856 14.500,3.241 C14.500,3.515 14.456,3.776 14.392,4.029 C14.357,6.088 13.699,8.818 11.000,10.973 C5.689,15.210 -0.000,11.471 -0.000,11.471 C4.500,11.471 4.500,9.974 4.500,9.974 C3.500,9.974 1.500,7.980 1.500,7.980 C2.000,8.478 3.000,7.980 3.000,7.980 C0.500,6.483 0.500,4.987 0.500,4.987 C1.000,5.485 2.000,4.987 2.000,4.987 C-0.500,2.992 1.000,0.498 1.000,0.498 C1.500,2.992 8.000,3.989 8.000,3.989 L8.083,3.948 C8.032,3.720 8.000,3.235 8.000,2.992 C8.000,1.201 9.455,-0.001 11.250,-0.001 C12.238,-0.001 13.112,0.448 13.708,1.142 L14.000,0.996 L15.500,-0.001 L14.500,1.994 L16.000,1.495 Z"/>
</svg>
